!!!OTL: Werbung (77), S.214
!!!id: T0227
**kern
*clefG2
*k[]
*G:
{8d
=1
8g
8g
8g
8d
=2
4b
8b
8d
=3
4g}
8r
=4
{8b
=5
8g
8b
8b
8b
=6
8b
8dd
4dd}
=7
{8a
8a
8a
8a
=8
8a
8cc
8cc}
=9
{8g
=10
8g
8g
8g
8d
=11
4b
8b
8d
=12
4g}
8r
==
*-
!!!minrhy: 8
!!!meters: 2/4 ]  ZZ[4
!!!cut: Werbung (77), S.214
!!!reg: Luxemburg
!!!trd: Singendes Volk, Esch-Alzette 1937 posth.
!!!rhy1: X  XXXX  X_XX  X_0
!!!rhy2: X  XXXX  XXX_
!!!key: T0227  08  G 2/4 ]  ZZ[4
!!!mod: PENTATONIK DUR ?]  AMBITUS[8
!!!kad: 1541
!!!akz: 131_13_22_131_
!!!fot: 'a__b__as"av_
!!!for: 'a__b__bv_a__
!!!fok: '/__Va_/__~__
!! PHRAS[VORWIEGEND AUFTAKTIG]
!!!fkt: Liebeslieder
!!!bem: StraPen, fff Witry, 13.12.1932
!! THILL, Mathias:
!! PR[40] 2K[2] 2G[13] 3K[2] 3G[4] 4A[4] 4Ü[0] 5A[2] 6K[0] 6G[0]
!! 7K[2] 7G[0] 8A[0] MEHR[0] SI[30] ABS[47] SR[15] SP[15]
!! ST[10] 2k[4] 2g[15] 3k[2] 3g[2] 4d[0] 4ü[0] 5d[4] 6k[0] 6g[2]
!! 7k[0] 7g[0] 8d[0] mehr[0] si[30] dm[0] sr[19] sp[11]
!! 1F[19] 2F[71] 3F[2] 4F[8] LF[0] 2P[0] 3P[0] 4P[0] TRI[0] DF[4] AB[52]
!! TF[0] U3K[0] U3[0] U4[0] U4Ü[0] U5[8] U6K[0] U6[2] U7K[0] U7[4]
!! N1[27] N2K[0] N2[25] N3K[0] N3[21] N4[13] N4Ü[0] N5[0] N6K[0] N6[0]
!!!n7k: 0] N7[0] O1[0] O2K[0] O2[0] O3K[0] O3[0] HÖ[0
